X: 19
T:Scales A La Modes
C:David Grisman
N:From the Mandozine website  Transcribed by Mike Stangeland
L:1/8
Q:1/4=99
M:4/4
K:C
"*See Notes, sele""SCORE/NOTES"z8 | "C major scale"CD EF GA Bc | BA GF ED C2 | 
"Scales with no t""Pentatonic"CD FG Ac AG | FD C6 | "Jananese (5-note"C^C FG ^Gc G=G | 
F^C =C6 | "Spanish"C^C EF G^G _Bc | _B^G =GF E^C =C2 | "Gypsy"C^C EF G^G Bc | 
B^G =GF E^C =C2 | "Chinese (5-note)"CD EG Ac AG | ED C6 | "Hawiian (5-note)"CD ^DG Ac AG | 
^D=D C6 | "Balanese"C^C ^DG ^Gc G=G | ^D^C =C6 | "Hungarian Gypsy"CD ^D^F G^G Bc | 
[B^G]=G ^F^D =DC3 | z8 | "C"e2 "Example 3"fg c2 de | "F"g2 fe f4 | "G"d2 ef B2 cd | 
"C"f2 ed e4 | e2 fg c2 de | "F"g2 fe f4 | "G"z2 fe dG AB | "C"dc cc c4 |
